meu-app-react/src/img/times-internacionais/juventus.svg

<?xml version="1.0" encoding="utf-8"?>
<!-- Generator: Adobe Illustrator 25.0.0, SVG Export Plug-In . SVG Version: 6.00 Build 0)  -->
<svg version="1.1" id="Livello_1" xmlns="http://www.w3.org/2000/svg" xmlns:xlink="http://www.w3.org/1999/xlink" x="0px" y="0px"
	 viewBox="0 0 162.8 258.3" style="enable-background:new 0 0 162.8 258.3;" xml:space="preserve">
<path d="M129.6,135.7c0,62.6-26.5,78.4-80.2,105c6.9,4.6,16.2,10.1,32,17.6c41.4-19.6,81.4-45.3,81.4-113.8V0h-33.2L129.6,135.7
	L129.6,135.7z M98.1,0H0v28.7h65v91.9c0,42-2.5,45.9-57.1,70.5c3.8,9.6,9.3,19,16.5,27.5c61.7-27.5,73.7-41.7,73.7-89.3V0z"/>
</svg>

<svg width="163" height="259" viewBox="0 0 163 259" fill="none" xmlns="http://www.w3.org/2000/svg">
<g clip-path="url(#clip0_200_54)">
<path d="M129.6 135.7C129.6 198.3 103.1 214.1 49.4 240.7C56.3 245.3 65.6 250.8 81.4 258.3C122.8 238.7 162.8 213 162.8 144.5V0H129.6V135.7ZM98.1 0H0V28.7H65V120.6C65 162.6 62.5 166.5 7.9 191.1C11.7 200.7 17.2 210.1 24.4 218.6C86.1 191.1 98.1 176.9 98.1 129.3V0Z" fill="white"/>
</g>
<defs>
<clipPath id="clip0_200_54">
<rect width="162.8" height="258.3" fill="white"/>
</clipPath>
</defs>
</svg>
